X:15
T:An Ugly Customer
M:C|
L:1/8
K:A
"A"EAcA eAcA|EAce "E"dB ((3BAB)|"A"EAcA eAcA|"D"afed ((3cBA) "E"BG|
"A"EAcA eAcA|EAce "E"dBBg|"A"agae faec|"E"dBed "A"cA A||
e|"A"agae "D"fefg|"A"afec "E"dB ((3BAB)|"A"agae "D"((3fga) "A"ec|"E"dBed "A"cAAe|
"A"agae "D"((3fga) "A"ec|"Bm"dB"A"cA "D"BF ((3FEF)|"E"EFED "A"EFAB|"E"cdBd "A"cAA2|]
